!!!!SEGMENT: pl-wn--sd-xvi-qu-273--113_gomolka-mikolaj--dziatki-niewinne-panienki-uczciwe.krn
!!!cenid: 15xx:318
!!!COM: Gomółka, Mikołaj
!!!COM-rismid: pe30013343
!!!CDT: ~1535->1591/04/30
!!!CNT: Polish
!!!GTL: Melodiae na psalterz polski
!!!OTL: CXIII. Dziatki niewinne, panienki uczciwe,
!!!ONB: PSALM CXIII. Laudate pueri dominum. laudate nomen domini
!!!PDT: 1580
!!!AGN: Sacred
!!!SMS-siglum: PL-Wn
!!!SMS-shelfmark: SD XVI.Qu.273
!!!SMS-shelfwork: 113 G
!!!NIFC-rismid:
!!!ONB-nifc: Melodiae na psalterz polski
**kern	**text	**kern	**text	**kern	**text	**kern	**text
*part4	*part4	*part3	*part3	*part2	*part2	*part1	*part1
*staff4	*staff4	*staff3	*staff3	*staff2	*staff2	*staff1	*staff1
*clefF3	*	*clefC3	*	*clefC3	*	*clefC1	*
*k[b-B-]	*	*k[b-]	*	*k[b-]	*	*k[b-]	*
*C:	*	*C:	*	*C:	*	*C:	*
*M2/1	*	*M2/1	*	*M2/1	*	*M2/1	*
*met(C|)	*	*met(C|)	*	*met(C|)	*	*met(C|)	*
*I"BASSUS.	*	*I"TENOR.	*	*I"ALTUS.	*	*I"CANTUS.	*
=1-	=1	=1-	=1	=1-	=1	=1-	=1
!LO:TX:t=P:dwa bemole przy kluczu:problem	!	!	!	!	!	!	!
1A\	DƷiat-	1c\	DƷiat-	1e\	DƷiat-	1a\	DƷiat-
2A\	-ki	2c/	-ki	2.e\	-ki	2a\	-ki
2A\	nie-	2c/	nie-	.	.	2a\	nie-
.	.	.	.	4f\	nie-	.	.
=2-	=2	=2-	=2	=2-	=2	=2-	=2
1G\	-win-	2.d\	-win-	2g\	-win-	1b-\	-win-
.	.	.	.	2g\	-né,	.	.
.	.	4f\	.	.	.	.	.
2A\	-né,	2f\	-né,	1c\	pá-	2a\	.
2A\	pá-	2e\	pá-	.	.	2a\	-né,
=3-	=3	=3-	=3	=3-	=3	=3-	=3
1B-\	-nien-	2.d\	-nien-	2d\	-nien-	2g/	pá-
.	.	.	.	2d\	-ki	2f/	-nien-
.	.	4c\	.	.	.	.	.
2B-\	-ki	4d\	-ki	2d\	ucʒ-	2g\	-ki
.	.	4e\	.	.	.	.	.
2A\	ucʒ-	1f\	ucʒ-	1c\	.	2a\	ucʒ-
=4-	=4	=4-	=4	=4-	=4	=4-	=4
1G\	-ći-	.	.	.	.	1b-\	-ći-
.	.	2e\	-ći-	2B-/	-ći-	.	.
2F\	-wé,	2f\	-wé,	2c/	.	2a\	.
2G\	.	2d\	.	2B-/	-wé,	2b-\	-wé:
=5-	=5	=5-	=5	=5-	=5	=5-	=5
2A\	Spié-	2c/	Spié-	4F/	Spié-	2cc\	Spié-
.	.	.	.	4G/	.	.	.
2A\	-way-	2c/	-way-	4A/	-way-	2.a\	-way-
.	.	.	.	4B-/	.	.	.
1A\	-cie	2.F/	-cie	4c/	-cie	.	.
.	.	.	.	4F/	.	4b-\	.
.	.	.	.	2f\	i-	2cc\	-cie
.	.	4G/	.	.	.	.	.
=6-	=6	=6-	=6	=6-	=6	=6-	=6
2A\	i-	4A/	i-	2e\	-mię	4c/	i-
.	.	4B-/	.	.	.	4d/	.
2A\	-mię	4c\	-mię	2A/	páń-	4e/	-mię
.	.	4d\	.	.	.	4f/	.
2G\	páń-	2e\	páń-	2B-/	.	2g/	páń-
2F\	-ſkié	2f\	-ſkié	2c/	-ſkié	2a\	-ſkié
=7-	=7	=7-	=7	=7-	=7	=7-	=7
!!LO:PB:g=original
2G\	świę-	4d\	świę-	2g\	świę-	4b-\	świę-
.	.	4e\	.	.	.	4g\	.
2A\	-(to-	4f\	-(to-	2c\	-(to-	1cc\	-(to-
.	.	4e\	.	.	.	.	.
1G\	-bli-	4e\	-bli-	2.g\	-bli-	.	.
.	.	8d\L	.	.	.	.	.
.	.	8c\J	.	.	.	.	.
.	.	2d\	.	.	.	2b-\	-bli-
.	.	.	.	4f\	.	.	.
=8-	=8	=8-	=8	=8-	=8	=8-	=8
2C/	-wé.)	2c\	-wé.)	2e\	-wé.)	2cc\	-wé.)
2.F\	To	2c\	To	2f\	To	2a\	To
.	.	2c\	nie-	2f\	nie-	2a\	nie-
4E/	nie-	.	.	.	.	.	.
4D/	-ch(aj)	2d\	-ch(aj)	2f\	-ch(aj)	2a\	-ch(aj)
4C/	.	.	.	.	.	.	.
=9-	=9	=9-	=9	=9-	=9	=9-	=9
2D/	zà-	2d\	zà-	2f\	zà-	2a\	zà-
2AA/	-w(ʒ̇dy)	2c\	-w(ʒ̇dy)	2.e\	-w(ʒ̇dy)	2a\	-w(ʒ̇dy)
2A\	w uś-	2c\	w uś-	.	.	2a\	w uś-
.	.	.	.	4f\	.	.	.
2.G\	-ć(iech)	2B-/	-ć(iech)	2g\	w uś-	2b-\	-ć(iech)
=10-	=10	=10-	=10	=10-	=10	=10-	=10
.	.	2G/	ludʒ-	2d\	-ć(iech)	2b-\	ludʒ-
4F\	ludʒ-	.	.	.	.	.	.
1F\	-(kich)	2A/	-(kich)	2c\	ludʒ-	2a\	-(kich)
.	.	2B-/	ſły-	2d\	-(kich)	1g\	ſły-
2E/	ſły-	4A/	.	4c\	ſły-	.	.
.	.	4G/	.	4B-/	.	.	.
=11-	=11	=11-	=11	=11-	=11	=11-	=11
2F\	-n(ie)	4A/	-n(ie)	2A/	-n(ie)	2f/	-n(ie)
.	.	4B-/	.	.	.	.	.
2C/	Pó-	2c\	Pó-	2e\	Pó-	2g\	Pó-
2F\	-ki	2c\	-ki	2f\	-ki	2a\	-ki
2D/	pá-	2d\	pá-	2f\	pá-	2a\	pá-
=12-	=12	=12-	=12	=12-	=12	=12-	=12
2.A\	-mię-	2c\	-mię-	4e\	-mię-	2a\	-mię-
.	.	.	.	4d\	.	.	.
.	.	2.f\	-(tny)	2c\	-(tny)	2a\	-(tny)
4G\	-(tny)	.	.	.	.	.	.
2F\	wiek	.	.	2c\	wiek	2a\	wiek
.	.	4e\	wiek	.	.	.	.
2G\	ſwym	2d\	ſwym	2B-/	ſwym	2g\	ſwym
=13-	=13	=13-	=13	=13-	=13	=13-	=13
2.D/	to-	2d\	to-	2A/	to-	2f/	to-
.	.	2d\	-(rem)	2A/	-(rem)	2g\	-(rem)
4C/	-(rem)	.	.	.	.	.	.
2.AA/	pły-	1c\	pły-	1f\	pły-	1a\	pły-
4BB-/	.	.	.	.	.	.	.
=14-	=14	=14-	=14	=14-	=14	=14-	=14
000C/	-nie.	00c\;	-nie.	000e\	-nie.	000g\	-nie.
.	.	00ryy	.	.	.	.	.
==	==	==	==	==	==	==	==
*-	*-	*-	*-	*-	*-	*-	*-
!!!RDF**kern: l = terminal long
!!!system-decoration: s1,s2,s3,s4
!!!ENC: Marta Lawrence
!!!END: 2020-02-18
!!!URL-scan: https://polona.pl/item/melodiae-na-psalterz-polski,Nzk3MTM4ODQ/262 Scan on Polona
!!!IIIF: https://polona.pl/iiif/item/Nzk3MTM4ODQ/manifest.json
